X: 1
T: Gigue d'Oscar
O: Trad.
S: played by Philippe Bruneau in the video, La Gigue Quebecoise
Z: Jeff Farmer 2007-9-?
Z: abc by John Chambers 2011-8-10, written-out repeats converted to repeated phrases.
M: 4/4
L: 1/8
K: F
FG \
|: AFFF AFGA | BdcA G2FG | AFFF AFGA |1 BdcA F2FG :|2 BdcA F3 ||
|: e |\
f2e2 dcde | f2e2 ddcA | BdcA G3e |\
f2e2 dcde | f2e2 ddcA | BdcA F3 :|
